Numix-GalliumOS/64/categories/applications-graphics.svg

<?xml version="1.0" encoding="UTF-8" standalone="no"?>
<svg
   xmlns:dc="http://purl.org/dc/elements/1.1/"
   xmlns:cc="http://creativecommons.org/ns#"
   xmlns:rdf="http://www.w3.org/1999/02/22-rdf-syntax-ns#"
   xmlns:svg="http://www.w3.org/2000/svg"
   xmlns="http://www.w3.org/2000/svg"
   xmlns:sodipodi="http://sodipodi.sourceforge.net/DTD/sodipodi-0.dtd"
   xmlns:inkscape="http://www.inkscape.org/namespaces/inkscape"
   width="64"
   height="64"
   viewBox="0 0 64 64"
   id="svg2"
   version="1.1"
   inkscape:version="0.91 r"
   sodipodi:docname="applications-graphics.svg">
  <metadata
     id="metadata16">
    <rdf:RDF>
      <cc:Work
         rdf:about="">
        <dc:format>image/svg+xml</dc:format>
        <dc:type
           rdf:resource="http://purl.org/dc/dcmitype/StillImage" />
      </cc:Work>
    </rdf:RDF>
  </metadata>
  <defs
     id="defs14" />
  <sodipodi:namedview
     pagecolor="#ffffff"
     bordercolor="#666666"
     borderopacity="1"
     objecttolerance="10"
     gridtolerance="10"
     guidetolerance="10"
     inkscape:pageopacity="0"
     inkscape:pageshadow="2"
     inkscape:window-width="640"
     inkscape:window-height="480"
     id="namedview12" />
  <g
     style="fill:#4ea34d"
     id="g4">
    <path
       d="M 31.488281 21.757812 C 21.335938 22.207031 11.460938 27.15625 15.65625 37.179688 C 21.773438 34.878906 30.289062 38.308594 26.75 40.007812 C 33.71875 45.746094 50.929688 36.480469 49.214844 28.597656 C 47.4375 23.796875 39.382812 21.410156 31.488281 21.757812 Z M 31.21875 24.589844 C 33.335938 24.589844 35.050781 25.15625 35.050781 25.851562 C 35.050781 26.550781 33.335938 27.117188 31.21875 27.117188 C 29.097656 27.117188 27.382812 26.550781 27.382812 25.851562 C 27.382812 25.15625 29.097656 24.589844 31.21875 24.589844 Z M 40.6875 26.679688 C 42.804688 26.679688 44.523438 27.246094 44.523438 27.945312 C 44.523438 28.640625 42.804688 29.207031 40.6875 29.207031 C 38.570312 29.207031 36.855469 28.640625 36.855469 27.945312 C 36.855469 27.246094 38.570312 26.679688 40.6875 26.679688 Z M 23.277344 28.597656 C 25.394531 28.597656 27.113281 29.164062 27.113281 29.859375 C 27.113281 30.558594 25.394531 31.125 23.277344 31.125 C 21.160156 31.125 19.445312 30.558594 19.445312 29.859375 C 19.445312 29.164062 21.160156 28.597656 23.277344 28.597656 Z M 40.597656 31.90625 C 42.714844 31.90625 44.433594 32.472656 44.433594 33.171875 C 44.433594 33.867188 42.714844 34.433594 40.597656 34.433594 C 38.480469 34.433594 36.765625 33.867188 36.765625 33.171875 C 36.765625 32.472656 38.480469 31.90625 40.597656 31.90625 Z M 33.921875 36.699219 C 36.039062 36.699219 37.757812 37.265625 37.757812 37.960938 C 37.757812 38.660156 36.039062 39.226562 33.921875 39.226562 C 31.804688 39.226562 30.089844 38.660156 30.089844 37.960938 C 30.089844 37.265625 31.804688 36.699219 33.921875 36.699219 Z "
       id="path6" />
    <path
       d="M 45.949219 12.144531 L 27.132812 43.621094 C 25.664062 43.589844 24.300781 42.894531 23.3125 41.488281 L 43.472656 10.765625 C 44.828125 10.445312 45.652344 10.90625 45.949219 12.144531 Z "
       id="path8" />
    <path
       d="M 23.203125 49.097656 C 25.3125 48.8125 28.582031 46.121094 27.054688 42.222656 C 23.398438 41.175781 24.226562 40.648438 24.226562 40.648438 C 19.203125 41.851562 15.386719 47.597656 16.4375 51.25 C 17.101562 53.566406 16.992188 53.328125 16.992188 53.328125 C 18.386719 48.851562 18.410156 49.671875 23.203125 49.097656 Z "
       id="path10" />
  </g>
</svg>

<svg xmlns="http://www.w3.org/2000/svg" viewBox="0 0 64 64">
 <g style="fill:#4ea34d">
  <path d="m 31.488 21.758 c -10.152 0.449 -20.03 5.398 -15.832 15.422 c 6.117 -2.301 14.633 1.129 11.09 2.828 c 6.969 5.738 24.18 -3.527 22.465 -11.41 c -1.777 -4.801 -9.832 -7.188 -17.727 -6.84 m -0.27 2.832 c 2.117 0 3.832 0.566 3.832 1.262 c 0 0.699 -1.715 1.266 -3.832 1.266 c -2.121 0 -3.836 -0.566 -3.836 -1.266 c 0 -0.695 1.715 -1.262 3.836 -1.262 m 9.469 2.09 c 2.117 0 3.836 0.566 3.836 1.266 c 0 0.695 -1.719 1.262 -3.836 1.262 c -2.117 0 -3.832 -0.566 -3.832 -1.262 c 0 -0.699 1.715 -1.266 3.832 -1.266 m -17.41 1.918 c 2.117 0 3.836 0.566 3.836 1.262 c 0 0.699 -1.719 1.266 -3.836 1.266 c -2.117 0 -3.832 -0.566 -3.832 -1.266 c 0 -0.695 1.715 -1.262 3.832 -1.262 m 17.32 3.309 c 2.117 0 3.836 0.566 3.836 1.266 c 0 0.695 -1.719 1.262 -3.836 1.262 c -2.117 0 -3.832 -0.566 -3.832 -1.262 c 0 -0.699 1.715 -1.266 3.832 -1.266 m -6.676 4.793 c 2.117 0 3.836 0.566 3.836 1.262 c 0 0.699 -1.719 1.266 -3.836 1.266 c -2.117 0 -3.832 -0.566 -3.832 -1.266 c 0 -0.695 1.715 -1.262 3.832 -1.262 Z"/>
  <path d="m 45.949 12.145 l -18.816 31.477 c -1.469 -0.031 -2.832 -0.727 -3.82 -2.133 l 20.16 -30.723 c 1.355 -0.32 2.18 0.141 2.477 1.379 Z"/>
  <path d="m 23.2 49.1 c 2.109 -0.285 5.379 -2.977 3.852 -6.875 c -3.656 -1.047 -2.828 -1.574 -2.828 -1.574 c -5.02 1.203 -8.84 6.949 -7.789 10.602 c 0.664 2.316 0.555 2.078 0.555 2.078 c 1.395 -4.477 1.418 -3.656 6.211 -4.23 Z"/>
 </g>
</svg>
